icon-themes/breeze_svg/cmd/lc_printersetup.svg

<svg viewBox="0 0 24 24" xmlns="http://www.w3.org/2000/svg"><path d="m20 10c-.5523 0-1 .44772-1 1s.4477 1 1 1 1-.44772 1-1-.4477-1-1-1zm0 4c-.5523 0-1 .44772-1 1s.4477 1 1 1 1-.44772 1-1-.4477-1-1-1zm0 4c-.5523 0-1 .44772-1 1s.4477 1 1 1 1-.44772 1-1-.4477-1-1-1z" fill="#f47750"/><path d="m6 4v1 4h-2v1 7h1 3v2 1h8v-3h1 1v-1h-1v-2h-1-9v2h-2v-6h14v-1h-1v-4-1zm1 1h10v4h-1v-1h-8v1h-1zm1 1v1h8v-1zm-2 5v1h3v-1zm3 6h6v2h-6z" fill="#4d4d4d"/></svg>

<svg xmlns="http://www.w3.org/2000/svg" viewBox="0 0 24 24">
 <path 
     style="fill:#f47750" 
     d="M 20 10 C 19.4477 10 19 10.44772 19 11 C 19 11.55228 19.4477 12 20 12 C 20.5523 12 21 11.55228 21 11 C 21 10.44772 20.5523 10 20 10 z M 20 14 C 19.4477 14 19 14.44772 19 15 C 19 15.55228 19.4477 16 20 16 C 20.5523 16 21 15.55228 21 15 C 21 14.44772 20.5523 14 20 14 z M 20 18 C 19.4477 18 19 18.44772 19 19 C 19 19.55228 19.4477 20 20 20 C 20.5523 20 21 19.55228 21 19 C 21 18.44772 20.5523 18 20 18 z "
     />
 <path 
     style="fill:#4d4d4d" 
     d="M 6 4 L 6 5 L 6 9 L 4 9 L 4 10 L 4 17 L 5 17 L 8 17 L 8 19 L 8 20 L 16 20 L 16 17 L 17 17 L 18 17 L 18 16 L 17 16 L 17 14 L 16 14 L 7 14 L 7 16 L 5 16 L 5 10 L 19 10 L 19 9 L 18 9 L 18 5 L 18 4 L 6 4 z M 7 5 L 17 5 L 17 9 L 16 9 L 16 8 L 8 8 L 8 9 L 7 9 L 7 5 z M 8 6 L 8 7 L 16 7 L 16 6 L 8 6 z M 6 11 L 6 12 L 9 12 L 9 11 L 6 11 z M 9 17 L 15 17 L 15 19 L 9 19 L 9 17 z "
     />
 </svg>
